rospo-dark/16x16/panel/webtorrent-desktop-panel.svg

<svg height="22" width="22" xmlns="http://www.w3.org/2000/svg"><path d="m11.042968 3.0005168a1.7755 1.8191263 0 0 0 -.93164.2441301l-5.222656 3.0897188a1.7755 1.8191263 0 0 0 -.888672 1.5761081v6.1794382a1.7755 1.8191263 0 0 0  .888672 1.576108l5.222656 3.089718a1.7755 1.8191263 0 0 0 1.777344 0l5.222656-3.089718a1.7755 1.8191263 0 0 0  .888672-1.576108v-6.1794382a1.7755 1.8191263 0 0 0 -.888672-1.5761081l-5.222656-3.0897188a1.7755 1.8191263 0 0 0 -.845704-.2421772zm-2.158203 3.9998379c.835627 0 1.58821.4262017 2.115235 1.0722215.526889-.6460198 1.27963-1.0722215 2.115233-1.0722215 1.593357 0 2.884767 1.4699324 2.884767 3.2830703 0 .487156-.08251.954497-.208984 1.40424-.06961.247482.989492-2.2180174-.226563.624975-1.216055 2.842992-4.564453 4.68731-4.564453 4.68731s-3.348376-1.844269-4.564453-4.68731c-.106402-.22236-.226563-.624975-.226563-.624975-.132459-.447675-.208984-.917084-.208984-1.40424 0-1.8131379 1.291409-3.2830703 2.884765-3.2830703z" fill="#d3dae3"/></svg>

<svg xmlns="http://www.w3.org/2000/svg" width="22" height="22" version="1.1">
 <defs>
  <style id="current-color-scheme" type="text/css">
   .ColorScheme-Text { color:#d3dae3; } .ColorScheme-Highlight { color:#5294e2; }
  </style>
 </defs>
 <path style="fill:currentColor" class="ColorScheme-Text" d="m 11.042968,3.0005168 a 1.7755,1.8191263 0 0 0 -0.93164,0.2441301 L 4.888672,6.3343657 A 1.7755,1.8191263 0 0 0 4,7.9104738 v 6.1794382 a 1.7755,1.8191263 0 0 0 0.888672,1.576108 l 5.222656,3.089718 a 1.7755,1.8191263 0 0 0 1.777344,0 L 17.111328,15.66602 A 1.7755,1.8191263 0 0 0 18,14.089912 V 7.9104738 A 1.7755,1.8191263 0 0 0 17.111328,6.3343657 L 11.888672,3.2446469 A 1.7755,1.8191263 0 0 0 11.042968,3.0024697 Z M 8.884765,7.0003547 c 0.835627,0 1.58821,0.4262017 2.115235,1.0722215 0.526889,-0.6460198 1.27963,-1.0722215 2.115233,-1.0722215 1.593357,0 2.884767,1.4699324 2.884767,3.2830703 0,0.487156 -0.08251,0.954497 -0.208984,1.40424 -0.06961,0.247482 0.989492,-2.2180174 -0.226563,0.624975 C 14.348398,15.155632 11,16.99995 11,16.99995 c 0,0 -3.348376,-1.844269 -4.564453,-4.68731 C 6.329145,12.09028 6.208984,11.687665 6.208984,11.687665 6.076525,11.23999 6,10.770581 6,10.283425 6,8.4702871 7.291409,7.0003547 8.884765,7.0003547 Z"/>
</svg>
